X: 8919
T: Curlews, The
R: reel
M: 4/4
K: Bminor
|:~f2eg fB~B2|fece ~a3e|faed cA~A2|EAce azga|
~f2eg fB~B2|fece ~a3f|gzge ~f2fe|dBcA FB~B2:|
|:(3Bcd cd BF~F2|DF~F2 Bcd2|ecBc AE~E2|cEAB cdec|
dzcd BF~F2|DF~F2 BcdB|cA~A2 fzec|dBcA FB~B2:|

